public/assets/get-started-decor.svg

<svg width="99" height="152" viewBox="0 0 99 152" fill="none" xmlns="http://www.w3.org/2000/svg">
<path d="M-20.1344 97.7979C-18.7219 99.1163 -16.84 99.8159 -14.9027 99.7428C-12.9655 99.6697 -11.1316 98.8298 -9.80446 97.408C-8.47733 95.9861 -7.76568 94.0988 -7.82608 92.1611C-7.88648 90.2234 -8.71399 88.3941 -10.1265 87.0757L-37.4037 61.6157C-35.5146 58.6897 -33.3708 55.9355 -30.9973 53.3856C-28.8494 51.1702 -26.4792 49.182 -23.9248 47.4527L3.2137 72.7833C4.64483 73.9988 6.49263 74.613 8.37326 74.4981C10.2539 74.3833 12.0228 73.5484 13.3124 72.1667C14.602 70.785 15.3133 68.9628 15.2984 67.0788C15.2835 65.1947 14.5436 63.3935 13.2325 62.0495L-10.7751 39.6413C-5.01333 36.6414 1.46689 33.6592 8.3417 30.7407L26.5727 47.7571C27.9852 49.0756 29.8671 49.7752 31.8044 49.7021C33.7416 49.6289 35.5755 48.789 36.9026 47.3672C38.2298 45.9454 38.9414 44.058 38.881 42.1203C38.8206 40.1826 37.9931 38.3534 36.5805 37.0349L23.3752 24.7093C30.1905 22.0399 37.2138 19.5645 44.0164 17.2097L49.9317 22.7309C51.3442 24.0493 53.2261 24.749 55.1633 24.6759C57.1006 24.6028 58.9345 23.7629 60.2616 22.341C61.5887 20.9192 62.3004 19.0318 62.24 17.0941C62.1796 15.1564 61.3521 13.3272 59.9395 12.0087L59.824 11.9009C81.5337 4.85461 98.3604 0.214128 98.3604 0.214128C98.3604 0.214128 94.9007 17.3312 89.354 39.4636L89.2385 39.3558C87.8259 38.0373 85.944 37.3377 84.0067 37.4108C82.0695 37.4839 80.2356 38.3238 78.9085 39.7457C77.5813 41.1675 76.8697 43.0549 76.9301 44.9926C76.9905 46.9302 77.818 48.7595 79.2306 50.0779L85.1574 55.6099C83.2764 62.5585 81.2441 69.6924 79.0848 76.7076L65.8795 64.382C64.4669 63.0635 62.585 62.3639 60.6478 62.437C58.7105 62.5101 56.8766 63.35 55.5495 64.7719C54.2224 66.1937 53.5107 68.0811 53.5711 70.0187C53.6315 71.9564 54.459 73.7857 55.8716 75.1042L74.1141 92.1314C71.6866 99.1792 69.1467 105.861 66.5505 111.816L42.5314 89.3965C41.1002 88.181 39.2524 87.5668 37.3718 87.6817C35.4912 87.7965 33.7223 88.6315 32.4326 90.0132C31.143 91.3948 30.4318 93.217 30.4467 95.1011C30.4616 96.9851 31.2014 98.7863 32.5126 100.13L59.6626 125.472C58.1066 128.135 56.2868 130.635 54.2307 132.936C51.8502 135.479 49.2501 137.807 46.461 139.893L19.1724 114.423C17.7598 113.104 15.8779 112.405 13.9407 112.478C12.0034 112.551 10.1696 113.391 8.84243 114.813C7.5153 116.234 6.80364 118.122 6.86404 120.06C6.92444 121.997 7.75193 123.826 9.16448 125.145L33.0565 147.445C22.7456 151.576 11.493 152.698 0.60945 150.681C-10.2741 148.663 -20.3404 143.59 -28.4169 136.052C-36.4934 128.513 -42.2476 118.82 -45.0091 108.101C-47.7707 97.3823 -47.4259 86.0791 -44.0149 75.5083L-20.1344 97.7979Z" fill="#AECC53"/>
<path d="M-20.1344 97.7979C-18.7219 99.1163 -16.84 99.8159 -14.9027 99.7428C-12.9655 99.6697 -11.1316 98.8298 -9.80446 97.408C-8.47733 95.9861 -7.76568 94.0988 -7.82608 92.1611C-7.88648 90.2234 -8.71399 88.3941 -10.1265 87.0757L-37.4037 61.6157C-35.5146 58.6897 -33.3708 55.9355 -30.9973 53.3856C-28.8494 51.1702 -26.4792 49.182 -23.9248 47.4527L3.2137 72.7833C4.64483 73.9988 6.49263 74.613 8.37326 74.4981C10.2539 74.3833 12.0228 73.5484 13.3124 72.1667C14.602 70.785 15.3133 68.9628 15.2984 67.0788C15.2835 65.1947 14.5436 63.3935 13.2325 62.0495L-10.7751 39.6413C-5.01333 36.6414 1.46689 33.6592 8.3417 30.7407L26.5727 47.7571C27.9852 49.0756 29.8671 49.7752 31.8044 49.7021C33.7416 49.6289 35.5755 48.789 36.9026 47.3672C38.2298 45.9454 38.9414 44.058 38.881 42.1203C38.8206 40.1826 37.9931 38.3534 36.5805 37.0349L23.3752 24.7093C30.1905 22.0399 37.2138 19.5645 44.0164 17.2097L49.9317 22.7309C51.3442 24.0493 53.2261 24.749 55.1633 24.6759C57.1006 24.6028 58.9345 23.7629 60.2616 22.341C61.5887 20.9192 62.3004 19.0318 62.24 17.0941C62.1796 15.1564 61.3521 13.3272 59.9395 12.0087L59.824 11.9009C81.5337 4.85461 98.3604 0.214128 98.3604 0.214128C98.3604 0.214128 94.9007 17.3312 89.354 39.4636L89.2385 39.3558C87.8259 38.0373 85.944 37.3377 84.0067 37.4108C82.0695 37.4839 80.2356 38.3238 78.9085 39.7457C77.5813 41.1675 76.8697 43.0549 76.9301 44.9926C76.9905 46.9302 77.818 48.7595 79.2306 50.0779L85.1574 55.6099C83.2764 62.5585 81.2441 69.6924 79.0848 76.7076L65.8795 64.382C64.4669 63.0635 62.585 62.3639 60.6478 62.437C58.7105 62.5101 56.8766 63.35 55.5495 64.7719C54.2224 66.1937 53.5107 68.0811 53.5711 70.0187C53.6315 71.9564 54.459 73.7857 55.8716 75.1042L74.1141 92.1314C71.6866 99.1792 69.1467 105.861 66.5505 111.816L42.5314 89.3965C41.1002 88.181 39.2524 87.5668 37.3718 87.6817C35.4912 87.7965 33.7223 88.6315 32.4326 90.0132C31.143 91.3948 30.4318 93.217 30.4467 95.1011C30.4616 96.9851 31.2014 98.7863 32.5126 100.13L59.6626 125.472C58.1066 128.135 56.2868 130.635 54.2307 132.936C51.8502 135.479 49.2501 137.807 46.461 139.893L19.1724 114.423C17.7598 113.104 15.8779 112.405 13.9407 112.478C12.0034 112.551 10.1696 113.391 8.84243 114.813C7.5153 116.234 6.80364 118.122 6.86404 120.06C6.92444 121.997 7.75193 123.826 9.16448 125.145L33.0565 147.445C22.7456 151.576 11.493 152.698 0.60945 150.681C-10.2741 148.663 -20.3404 143.59 -28.4169 136.052C-36.4934 128.513 -42.2476 118.82 -45.0091 108.101C-47.7707 97.3823 -47.4259 86.0791 -44.0149 75.5083L-20.1344 97.7979Z" fill="white" fill-opacity="0.5"/>
</svg>

<svg xmlns="http://www.w3.org/2000/svg" width="99" height="152" fill="none" viewBox="0 0 99 152"><path fill="#aecc53" d="M-20.134 97.798a7.26 7.26 0 0 0 5.231 1.945 7.36 7.36 0 0 0 5.099-2.335 7.36 7.36 0 0 0 1.978-5.247 7.26 7.26 0 0 0-2.3-5.085l-27.278-25.46a59 59 0 0 1 6.407-8.23 45 45 0 0 1 7.072-5.933l27.139 25.33a7.28 7.28 0 0 0 5.16 1.715 7.38 7.38 0 0 0 4.938-2.331 7.38 7.38 0 0 0 1.986-5.088 7.28 7.28 0 0 0-2.065-5.03l-24.008-22.408c5.762-3 12.242-5.982 19.117-8.9l18.23 17.016a7.26 7.26 0 0 0 5.232 1.945 7.36 7.36 0 0 0 5.099-2.335 7.36 7.36 0 0 0 1.978-5.247 7.26 7.26 0 0 0-2.3-5.085L23.375 24.709c6.816-2.67 13.839-5.145 20.641-7.5l5.916 5.522a7.26 7.26 0 0 0 5.231 1.945 7.36 7.36 0 0 0 5.099-2.335 7.36 7.36 0 0 0 1.978-5.247 7.26 7.26 0 0 0-2.3-5.085l-.116-.108C81.534 4.855 98.36.214 98.36.214s-3.46 17.117-9.006 39.25l-.115-.108a7.26 7.26 0 0 0-5.232-1.945 7.36 7.36 0 0 0-5.099 2.335 7.36 7.36 0 0 0-1.978 5.247 7.26 7.26 0 0 0 2.3 5.085l5.927 5.532a644 644 0 0 1-6.072 21.098L65.88 64.382a7.26 7.26 0 0 0-5.232-1.945 7.36 7.36 0 0 0-5.099 2.335 7.36 7.36 0 0 0-1.978 5.247 7.26 7.26 0 0 0 2.3 5.085l18.243 17.027c-2.427 7.048-4.967 13.73-7.564 19.685l-24.019-22.42a7.28 7.28 0 0 0-5.16-1.714 7.37 7.37 0 0 0-4.938 2.331 7.38 7.38 0 0 0-1.986 5.088 7.28 7.28 0 0 0 2.066 5.029l27.15 25.342a46 46 0 0 1-5.432 7.464 59.3 59.3 0 0 1-7.77 6.957l-27.289-25.47a7.26 7.26 0 0 0-5.231-1.945 7.36 7.36 0 0 0-5.099 2.335 7.36 7.36 0 0 0-1.978 5.247 7.26 7.26 0 0 0 2.3 5.085l23.893 22.3a58.56 58.56 0 0 1-32.448 3.236 58.03 58.03 0 0 1-29.026-14.629 58 58 0 0 1-16.592-27.951 58.56 58.56 0 0 1 .994-32.593z"/><path fill="#fff" fill-opacity=".5" d="M-20.134 97.798a7.26 7.26 0 0 0 5.231 1.945 7.36 7.36 0 0 0 5.099-2.335 7.36 7.36 0 0 0 1.978-5.247 7.26 7.26 0 0 0-2.3-5.085l-27.278-25.46a59 59 0 0 1 6.407-8.23 45 45 0 0 1 7.072-5.933l27.139 25.33a7.28 7.28 0 0 0 5.16 1.715 7.38 7.38 0 0 0 4.938-2.331 7.38 7.38 0 0 0 1.986-5.088 7.28 7.28 0 0 0-2.065-5.03l-24.008-22.408c5.762-3 12.242-5.982 19.117-8.9l18.23 17.016a7.26 7.26 0 0 0 5.232 1.945 7.36 7.36 0 0 0 5.099-2.335 7.36 7.36 0 0 0 1.978-5.247 7.26 7.26 0 0 0-2.3-5.085L23.375 24.709c6.816-2.67 13.839-5.145 20.641-7.5l5.916 5.522a7.26 7.26 0 0 0 5.231 1.945 7.36 7.36 0 0 0 5.099-2.335 7.36 7.36 0 0 0 1.978-5.247 7.26 7.26 0 0 0-2.3-5.085l-.116-.108C81.534 4.855 98.36.214 98.36.214s-3.46 17.117-9.006 39.25l-.115-.108a7.26 7.26 0 0 0-5.232-1.945 7.36 7.36 0 0 0-5.099 2.335 7.36 7.36 0 0 0-1.978 5.247 7.26 7.26 0 0 0 2.3 5.085l5.927 5.532a644 644 0 0 1-6.072 21.098L65.88 64.382a7.26 7.26 0 0 0-5.232-1.945 7.36 7.36 0 0 0-5.099 2.335 7.36 7.36 0 0 0-1.978 5.247 7.26 7.26 0 0 0 2.3 5.085l18.243 17.027c-2.427 7.048-4.967 13.73-7.564 19.685l-24.019-22.42a7.28 7.28 0 0 0-5.16-1.714 7.37 7.37 0 0 0-4.938 2.331 7.38 7.38 0 0 0-1.986 5.088 7.28 7.28 0 0 0 2.066 5.029l27.15 25.342a46 46 0 0 1-5.432 7.464 59.3 59.3 0 0 1-7.77 6.957l-27.289-25.47a7.26 7.26 0 0 0-5.231-1.945 7.36 7.36 0 0 0-5.099 2.335 7.36 7.36 0 0 0-1.978 5.247 7.26 7.26 0 0 0 2.3 5.085l23.893 22.3a58.56 58.56 0 0 1-32.448 3.236 58.03 58.03 0 0 1-29.026-14.629 58 58 0 0 1-16.592-27.951 58.56 58.56 0 0 1 .994-32.593z"/></svg>
